X:125
T:Maulykevane Jig, The
F:file ID: cre.5/125mauly
B:CRE 5.035 (Port Mholl UÃÂÃÂÃÂÃÂ­ ChÃÂÃÂÃÂÃÂ­obhÃÂÃÂÃÂÃÂ¡in)
N:Maulykevane (accent on 3rd syllable) is in the Sliabh Luachra 
area of Kerry. 
M:6/8
Q:160
R:jig
K:A
B|c2A ece|efe ece|a3 ecA|B2A BAB|
c2e ece|faf ece|faa ece|ABA A2:|
K:D
z|:fef g2e|fef g2e|faa ecA|BcB B2f|
fef g2e|fef g2e|faf ece|ABA A3:|

%%%

